images/decoration/favorite.svg

<svg xmlns="http://www.w3.org/2000/svg" width="19" height="17" fill="none" viewBox="0 0 19 17"><path fill="#000" d="M9.44382 17c-.30086 0-.60171-.1-.80227-.4-5.41533-6.1-6.71902-7.5-7.01987-7.9C.91969 7.8.518555 6.6.518555 5.4c0-3 2.406815-5.4 5.515605-5.4 1.30369 0 2.5071.5 3.50994 1.3C10.5469.5 11.8506 0 13.054 0c3.0085 0 5.5156 2.4 5.5156 5.4 0 1.3-.5014 2.5-1.3036 3.4l-7.0199 7.9c-.2006.2-.40115.3-.80228.3ZM3.42679 7.5c.30085.4 3.50993 4 6.11731 6.9l6.2176-7c.5014-.5.702-1.2.702-2 0-1.8-1.5043-3.3-3.3094-3.3-1.0028 0-2.0057.5-2.7076 1.3-.3009.3-.60175.4-.9026.4-.30085 0-.6017-.2-.80227-.4-.70199-.8-1.70483-1.3-2.70767-1.3-1.8051 0-3.30936 1.5-3.30936 3.3-.10028.9.30085 1.6.70199 2.1-.10029 0-.10029 0 0 0Z"/></svg>

<svg width="19" height="17" viewBox="0 0 19 17" fill="none" xmlns="http://www.w3.org/2000/svg">
<path d="M9.44382 17C9.14296 17 8.84211 16.9 8.64155 16.6C3.22622 10.5 1.92253 9.1 1.62168 8.7C0.91969 7.8 0.518555 6.6 0.518555 5.4C0.518555 2.4 2.92537 0 6.03416 0C7.33785 0 8.54126 0.5 9.5441 1.3C10.5469 0.5 11.8506 0 13.054 0C16.0625 0 18.5696 2.4 18.5696 5.4C18.5696 6.7 18.0682 7.9 17.266 8.8L10.2461 16.7C10.0455 16.9 9.84495 17 9.44382 17ZM3.42679 7.5C3.72764 7.9 6.93672 11.5 9.5441 14.4L15.7617 7.4C16.2631 6.9 16.4637 6.2 16.4637 5.4C16.4637 3.6 14.9594 2.1 13.1543 2.1C12.1515 2.1 11.1486 2.6 10.4467 3.4C10.1458 3.7 9.84495 3.8 9.5441 3.8C9.24325 3.8 8.9424 3.6 8.74183 3.4C8.03984 2.6 7.037 2.1 6.03416 2.1C4.22906 2.1 2.7248 3.6 2.7248 5.4C2.62452 6.3 3.02565 7 3.42679 7.5C3.3265 7.5 3.3265 7.5 3.42679 7.5Z" fill="black"/>
</svg>
